icons/VBA-Dark.svg

<svg xmlns="http://www.w3.org/2000/svg" width="256" height="256" style="background:0 0;background-color:transparent;color-scheme:light dark" viewBox="-0.5 -0.5 256 256"><rect width="256" height="256" fill="#242938" pointer-events="all" rx="58.88" ry="58.88" style="fill:light-dark(#242938,#242938)"/><path fill="none" stroke="#000" stroke-miterlimit="10" stroke-width="2" d="m243 178-231.28.77" pointer-events="stroke" style="stroke:light-dark(#000,#fff)"/><path fill="none" d="M18 182h220v55H18z" pointer-events="all"/><switch transform="translate(-.5 -.5)"><foreignObject width="100%" height="100%" pointer-events="none" requiredFeatures="http://www.w3.org/TR/SVG11/feature#Extensibility" style="overflow:visible;text-align:left"><div xmlns="http://www.w3.org/1999/xhtml" style="display:flex;align-items:unsafe center;justify-content:unsafe center;width:218px;height:1px;padding-top:210px;margin-left:19px"><div style="box-sizing:border-box;font-size:0;text-align:center;color:#000"><div style="display:inline-block;font-size:75px;font-family:&quot;Times New Roman&quot;;color:light-dark(#000,#fff);line-height:1.2;pointer-events:all;white-space:normal;word-wrap:normal">VBA</div></div></div></foreignObject><text x="128" y="232" fill="light-dark(#000000, #ffffff)" font-family="&quot;Times New Roman&quot;" font-size="75" text-anchor="middle">
                        VBA
                    </text></switch><path fill="none" d="M18 135h220v40H18z" pointer-events="all"/><switch transform="translate(-.5 -.5)"><foreignObject width="100%" height="100%" pointer-events="none" requiredFeatures="http://www.w3.org/TR/SVG11/feature#Extensibility" style="overflow:visible;text-align:left"><div xmlns="http://www.w3.org/1999/xhtml" style="display:flex;align-items:unsafe center;justify-content:unsafe center;width:218px;height:1px;padding-top:155px;margin-left:19px"><div style="box-sizing:border-box;font-size:0;text-align:center;color:#000"><div style="display:inline-block;font-size:50px;font-family:&quot;Times New Roman&quot;;color:light-dark(#000,#fff);line-height:1.2;pointer-events:all;white-space:normal;word-wrap:normal">Microsoft</div></div></div></foreignObject><text x="128" y="170" fill="light-dark(#000000, #ffffff)" font-family="&quot;Times New Roman&quot;" font-size="50" text-anchor="middle">
                        Microsoft
                    </text></switch><g stroke="#000" stroke-miterlimit="10" stroke-width="3" pointer-events="all"><path fill="#fff" d="m194 52 45 22.45v34.1L194 131l-45-22.45v-34.1Z" style="fill:light-dark(#fff,#952780);stroke:light-dark(#000,#000)"/><path fill="none" d="m149 74.45 45 22.45 45-22.45M194 96.9V131" style="stroke:light-dark(#000,#000)"/></g><g stroke="#000" stroke-miterlimit="10" stroke-width="3" pointer-events="all"><path fill="#fff" d="m123.36 13 47.5 19.32v40.36L123.36 92l-47.5-19.32V32.32Z" style="fill:light-dark(#fff,#66b2ff);stroke:light-dark(#000,#000)"/><path fill="none" d="m75.86 32.32 47.5 19.32 47.5-19.32m-47.5 19.32V92" style="stroke:light-dark(#000,#000)"/></g><g stroke="#000" stroke-miterlimit="10" stroke-width="3" pointer-events="all"><path fill="#fff" d="M64.5 53 110 71.51v39.98L64.5 130 19 111.49V71.51Z" style="fill:light-dark(#fff,#f93);stroke:light-dark(#000,#000)"/><path fill="none" d="m19 71.51 45.5 18.5 45.5-18.5m-45.5 18.5V130" style="stroke:light-dark(#000,#000)"/></g><g stroke="#000" stroke-miterlimit="10" stroke-width="3" pointer-events="all"><path fill="#fff" d="m133 56 48.5 19.73v39.54L133 135l-48.5-19.73V75.73Z" style="fill:light-dark(#fff,#ff3);stroke:light-dark(#000,#000)"/><path fill="none" d="M84.5 75.73 133 95.45l48.5-19.72M133 95.45V135" style="stroke:light-dark(#000,#000)"/></g></svg>

<svg host="65bd71144e" xmlns="http://www.w3.org/2000/svg" style="background: transparent; background-color: transparent; color-scheme: light dark;" xmlns:xlink="http://www.w3.org/1999/xlink" version="1.1" width="256px" height="256px" viewBox="-0.5 -0.5 256 256" content="&lt;mxfile&gt;&lt;diagram id=&quot;s0pBKesYQFE4U08WOx_8&quot; name=&quot;ページ1&quot;&gt;5Vhdb9owFP01SNtDI8cmMXkE2mwv3ap12sejm5hgNcTIMQX263dD7ITUoWWDrZWaB2Qff8T3nONrkwGZLjYfFFvOr2XK8wFG6WZALgcY+2EIvxWwNQAd1UCmRGqgFrgVv7gBkUFXIuVlp6OWMtdi2QUTWRQ80R2MKSXX3W4zmXffumQZd4DbhOUu+l2kel6jI0xb/CMX2dy+2Q+jumXBbGcTSTlnqVzvQeRqQKZKSl2XFpspzyvuLC/1uPhAa7MwxQt9zAC7jgeWr0xwZmF6a6PNlFwtTTeuNN/0cczubHfkrsFvIgNHcLngWm2hy7rlDgfGEvM93hqQGb2yZmwbEhRMVAcifD7A9VxofrtkSVVfg2MHZDLXC5jx0ociK5e1iWZiw2HWCfBRpFWpblaJcSgmUC21kvd8KnOpACpkAS2TmchzC+VVgBcpU/fvBpjgIY4IuH/alN9Df5fCRqjHCrwQraM/8s1RkRzykhuhHeV7FKP2sfvPZhUS1PV9QojvYRq1D3X58RE9nR/yPD+8SMdVMmptsmc6oEttf0DlAnkIBRb5CQjyQqDfAJcVF6ipbfdrN1wJWDhXBqytaTMW7vWZ0ZWnnQz4pMkC5HJoMcVzpsVDN2/28WrecCMFrKRR+JBcRuEh6U5YypVKuJljP+vZaZtxHg1HrXEeTaOZyrh2ptlJ3lBwlAuGjgu+TcaOEWAb6EcpB5JEAeUEdKnkm1SbRcABNDYNC5Gm1fBJX+5q81Ol+kwWOmYLkVfBfwVDlPD2T3wNv1/kghWmi8lhtLJaCfOJInvOJEfkItMaenaMVYC6WxP3+Sg4fSsGjgjXIlGylDP9qqUI0NnI72whchz1Q3Q69T59DcdE9OhYOC5+3671JALcDOAQsGe2PgvBFXFZVUUpp6s7Xu3IO5bcZztrfV7pXFRnx244dBkX2W5eP/CCEG7adOhHNPApjpwDwL2tdK8mdW6sryZ1+f2TV5l499T9owDTEeq/yjSmONrBPkEdCUnkSBj1KEijMwgYvpSA2KOU+D4KcBANRyH9r/qF4QTH8bn0C0JvFLqSBf9IMjfhvwXJ4jiKCDlZMntAI1cvv0evM1yVozcqVxyfQS57xkO6716w3FOu77/OX+w3qLbfJ+o7cfuRh1z9Bg==&lt;/diagram&gt;&lt;/mxfile&gt;">
    <defs/>
    <g>
        <g/>
        <g>
            <rect x="0" y="0" width="256" height="256" rx="58.88" ry="58.88" fill="#242938" stroke="none" pointer-events="all" style="fill: light-dark(rgb(36, 41, 56), rgb(36, 41, 56));"/>
        </g>
        <g/>
        <g>
            <path d="M 243 178 L 11.72 178.77" fill="none" stroke="#000000" stroke-width="2" stroke-miterlimit="10" pointer-events="stroke" style="stroke: light-dark(rgb(0, 0, 0), rgb(255, 255, 255));"/>
        </g>
        <g>
            <rect x="18" y="182" width="220" height="55" fill="none" stroke="none" pointer-events="all"/>
        </g>
        <g>
            <g transform="translate(-0.5 -0.5)">
                <switch>
                    <foreignObject style="overflow: visible; text-align: left;" pointer-events="none" width="100%" height="100%" requiredFeatures="http://www.w3.org/TR/SVG11/feature#Extensibility">
                        <div xmlns="http://www.w3.org/1999/xhtml" style="display: flex; align-items: unsafe center; justify-content: unsafe center; width: 218px; height: 1px; padding-top: 210px; margin-left: 19px;">
                            <div style="box-sizing: border-box; font-size: 0; text-align: center; color: #000000; ">
                                <div style="display: inline-block; font-size: 75px; font-family: &quot;Times New Roman&quot;; color: light-dark(#000000, #ffffff); line-height: 1.2; pointer-events: all; white-space: normal; word-wrap: normal; ">
                                    VBA
                                </div>
                            </div>
                        </div>
                    </foreignObject>
                    <text x="128" y="232" fill="light-dark(#000000, #ffffff)" font-family="&quot;Times New Roman&quot;" font-size="75px" text-anchor="middle">
                        VBA
                    </text>
                </switch>
            </g>
        </g>
        <g>
            <rect x="18" y="135" width="220" height="40" fill="none" stroke="none" pointer-events="all"/>
        </g>
        <g>
            <g transform="translate(-0.5 -0.5)">
                <switch>
                    <foreignObject style="overflow: visible; text-align: left;" pointer-events="none" width="100%" height="100%" requiredFeatures="http://www.w3.org/TR/SVG11/feature#Extensibility">
                        <div xmlns="http://www.w3.org/1999/xhtml" style="display: flex; align-items: unsafe center; justify-content: unsafe center; width: 218px; height: 1px; padding-top: 155px; margin-left: 19px;">
                            <div style="box-sizing: border-box; font-size: 0; text-align: center; color: #000000; ">
                                <div style="display: inline-block; font-size: 50px; font-family: &quot;Times New Roman&quot;; color: light-dark(#000000, #ffffff); line-height: 1.2; pointer-events: all; white-space: normal; word-wrap: normal; ">
                                    Microsoft
                                </div>
                            </div>
                        </div>
                    </foreignObject>
                    <text x="128" y="170" fill="light-dark(#000000, #ffffff)" font-family="&quot;Times New Roman&quot;" font-size="50px" text-anchor="middle">
                        Microsoft
                    </text>
                </switch>
            </g>
        </g>
        <g/>
        <g>
            <path d="M 194 52 L 239 74.45 L 239 108.55 L 194 131 L 149 108.55 L 149 74.45 Z" fill="#ffffff" stroke="#000000" stroke-width="3" stroke-miterlimit="10" pointer-events="all" style="fill: light-dark(rgb(255, 255, 255), rgb(149, 39, 128)); stroke: light-dark(rgb(0, 0, 0), rgb(0, 0, 0));"/>
            <path d="M 149 74.45 L 194 96.9 L 239 74.45 M 194 96.9 L 194 131" fill="none" stroke="#000000" stroke-width="3" stroke-miterlimit="10" pointer-events="all" style="stroke: light-dark(rgb(0, 0, 0), rgb(0, 0, 0));"/>
        </g>
        <g>
            <path d="M 123.36 13 L 170.86 32.32 L 170.86 72.68 L 123.36 92 L 75.86 72.68 L 75.86 32.32 Z" fill="#ffffff" stroke="#000000" stroke-width="3" stroke-miterlimit="10" pointer-events="all" style="fill: light-dark(rgb(255, 255, 255), rgb(102, 178, 255)); stroke: light-dark(rgb(0, 0, 0), rgb(0, 0, 0));"/>
            <path d="M 75.86 32.32 L 123.36 51.64 L 170.86 32.32 M 123.36 51.64 L 123.36 92" fill="none" stroke="#000000" stroke-width="3" stroke-miterlimit="10" pointer-events="all" style="stroke: light-dark(rgb(0, 0, 0), rgb(0, 0, 0));"/>
        </g>
        <g>
            <path d="M 64.5 53 L 110 71.51 L 110 111.49 L 64.5 130 L 19 111.49 L 19 71.51 Z" fill="#ffffff" stroke="#000000" stroke-width="3" stroke-miterlimit="10" pointer-events="all" style="fill: light-dark(rgb(255, 255, 255), rgb(255, 153, 51)); stroke: light-dark(rgb(0, 0, 0), rgb(0, 0, 0));"/>
            <path d="M 19 71.51 L 64.5 90.01 L 110 71.51 M 64.5 90.01 L 64.5 130" fill="none" stroke="#000000" stroke-width="3" stroke-miterlimit="10" pointer-events="all" style="stroke: light-dark(rgb(0, 0, 0), rgb(0, 0, 0));"/>
        </g>
        <g>
            <path d="M 133 56 L 181.5 75.73 L 181.5 115.27 L 133 135 L 84.5 115.27 L 84.5 75.73 Z" fill="#ffffff" stroke="#000000" stroke-width="3" stroke-miterlimit="10" pointer-events="all" style="fill: light-dark(rgb(255, 255, 255), rgb(255, 255, 51)); stroke: light-dark(rgb(0, 0, 0), rgb(0, 0, 0));"/>
            <path d="M 84.5 75.73 L 133 95.45 L 181.5 75.73 M 133 95.45 L 133 135" fill="none" stroke="#000000" stroke-width="3" stroke-miterlimit="10" pointer-events="all" style="stroke: light-dark(rgb(0, 0, 0), rgb(0, 0, 0));"/>
        </g>
    </g>
    <switch>
        <g requiredFeatures="http://www.w3.org/TR/SVG11/feature#Extensibility"/>
        <a transform="translate(0,-5)" xlink:href="https://www.drawio.com/doc/faq/svg-export-text-problems" target="_blank">
            <text text-anchor="middle" font-size="10px" x="50%" y="100%">
                Text is not SVG - cannot display
            </text>
        </a>
    </switch>
</svg>
